!!!OTL@@DE: Liebeszauber
!!!COM: Schultz, Joh. Abraham Peter
!!!ODT: 1782
!!!OMD: Lebhaft
!!!LYR: B&uuml;rger, Gottfried August
!!!LDT: 1778
!!!OCL: Erk, Ludwig
!!!GCO: Deutscher Liederschatz, Band 1
**kern	**kern	**kern
*staff3	*staff2	*staff1
*Ipiano	*Ipiano	*Ivox
*>[A,A,B]	*>[A,A,B]	*>[A,A,B]
*>norep[A,B]	*>norep[A,B]	*>norep[A,B]
*>A	*>A	*>A
=1-	=1-	=1-
*clefF4	*clefG2	*clefG2
*k[f#]	*k[f#]	*k[f#]
*G:	*G:	*G:
*M2/4	*M2/4	*M2/4
*MM80	*MM80	*MM80
8GG/	(16B/LL	4r
.	16d/	.
8r	16g/	.
.	16d/JJ	.
8G\	16B/LL	8.dd\
.	16d/	.
8r	16g/	.
.	16d/JJ)	16b\
=2	=2	=2
8GG/	(16B/LL	8g/
.	16d/	.
8r	16g/	8g/
.	16d/JJ)	.
8D\	(16c/LL	8a/
.	16d/	.
8r	16f#/	16a/LL
.	16d/JJ)	16b/JJ
=3	=3	=3
8GG/	(16B/LL	4g/
.	16d/	.
8r	16g/	.
.	16d/JJ	.
8G\	16B/LL	8.dd\
.	16d/	.
8r	16g/	.
.	16d/JJ)	16b\
=4	=4	=4
8GG/	(16B/LL	8g/
.	16d/	.
8r	16g/	8g/
.	16d/JJ)	.
8D\	(16c/LL	8a/
.	16d/	.
8r	16f#/	16a/LL
.	16d/JJ)	16b/JJ
=5	=5	=5
8GG/	(16B/LL	4g/
.	16d/	.
8r	16g/	.
.	16d/JJ	.
4r	16c/LL	16f#/LL
.	16B/	16g/JJ
.	16A/	16a/LL
.	16G/JJ)	16b/JJ
=6	=6	=6
4DD/	(16F#/LL	8cc\
.	16A/	.
.	16d/	8a/
.	16A/JJ	.
4D\	16G/LL	8b\
.	16B/	.
.	16d/	8g/
.	16B/JJ)	.
=7	=7	=7
4DD/	(16F#/LL	8a/
.	16A/	.
.	16d/	8d/
.	16A/JJ	.
4r	16c/LL	16f#/LL
.	16B/	16g/JJ
.	16A/	16a/LL
.	16G/JJ)	16b/JJ
=8	=8	=8
4DD/	(16F#/LL	8cc\
.	16A/	.
.	16d/	8a/
.	16A/JJ	.
4D\	16G/LL	8b\
.	16B/	.
.	16d/	8g/
.	16B/JJ)	.
=9	=9	=9
4DD/	(16F#/LL	8a/
.	16A/	.
.	16d/	8d/
.	16A/JJ)	.
8GG/	(16G/LL	8.b\
.	16d/	.
8r	16A/	.
.	16d/JJ)	16cc\
=10	=10	=10
8GG/	(16B/LL	8dd\
.	16d/	.
8r	16g/	8dd\
.	16d/JJ)	.
8GG/	(16G/LL	8.b\
.	16d/	.
8r	16A/	.
.	16d/JJ)	16cc\
=11	=11	=11
8GG/	(16B/LL	4dd\
.	16d/	.
8r	16g/	.
.	16b/JJ	.
8C/	8c/) 8e/ 8a/	12ee\L
.	.	12cc\J
8r	8r	.
.	.	12a/
=12	=12	=12
8D\	8B/ 8d/ 8g/	12dd\L
.	.	12b\J
8r	8r	.
.	.	12g/
8DD/	8c/ 8d/ 8f#/	12cc/L
.	.	12a/J
8r	8r	.
.	.	12f#/
=13	=13	=13
2GG/	(8B/ 8g/L	4g/
.	16d/L	.
.	16c/JJ	.
.	16B/LL	4r
.	16d/	.
.	16g/	.
.	16d/JJ)	.
=14:|!	=14:|!	=14:|!
*>B	*>B	*>B
8GG/	8B/ 8g/	2r
8r	8r	.
8GG/	8B/ 8g/	.
8r	8r	.
=15	=15	=15
2GG;/ 2D;/	2B;/ 2g;/	2r;
==	==	==
*-	*-	*-
!!!ENC: Craig Stuart Sapp
!!!END: 2004/05/26/
!!!EFL: 072/651
